!!!SOCIAL_FUNCTION:	songs connected with ceremonies
!!!PDT:	1929
!!!OTL: No_108_Song_During_Rain_Divination.krn
!!!REG: Southwest
!!!LANG: Non-Tone
!!!LING_GROUP: Uto-Aztecan
**kern
*staff1
=1-
*clefF4
*k[b-e-a-d-]
*M2/4
2e-\
=2||
*M3/4
4e-\
8c\L
[8B-\J
4B-\]
=3||
*M2/4
4.e-\
8B-\
=4
4c\
4B-\
=5
4F\
4E-\
=6
2A-\
=7
4F\
8E-/L
8C/J
=8||
*M3/4
4E-\
4F\
8F\L
8E-\J
=9
4.E-\
8D-\
4D-\
=10||
*M2/4
2D-\
=11
4D-\
4r
=12
2F\
=13
4B-\
4B-\
=14
4A-\
4E-\
=15
4F\
8C/L
8C/J
=16
4E-\
4E-\
=17
4F\
(8F\L
8E-\J)
=18||
*M3/4
2E-\
4E-\
=19
2E-\
4r
==
*-
